X:1267
T:Polska från Ore
T:Inte va dom fattiga (SvL Dalarna 1267)
R:Polska
O:Rättvik, Dalarna
B:Svenska Låtar Dalarna
S:Hjort Anders Olsson
N:SvL: Oregubbarna sjöng polskan med följande text: Inte va dom fattig, inte va dom rik// men blott en flicka med ära.
M:3/4
L:1/8
K:D
Q:116
vA>(A F)(F A)A|de/d/ B3B|Bc/B/ AA e(f/e/)|1c2 A4:|2c2 A2z||
|:(vg|Tf)d d2 eg|fd e3g|(f/a/)f/d/ e2 eg|f/a/f/d/ e3 d|ce a2 ce|1d2d2z:|2d2d4||

